svg/datadog.svg

<?xml version="1.0" encoding="UTF-8"?>
<svg xmlns="http://www.w3.org/2000/svg" xmlns:xlink="http://www.w3.org/1999/xlink" width="29.257" height="32" viewBox="0 0 29.257 32">
<path fill-rule="nonzero" fill="rgb(36.078432%, 17.647059%, 56.470591%)" fill-opacity="1" d="M 27.136719 16.410156 L 27.90625 26.191406 L 14.335938 28.625 L 13.164062 18.84375 L 15.101562 18.574219 C 15.417969 18.707031 15.644531 18.753906 16.003906 18.84375 C 16.589844 18.980469 17.265625 19.160156 18.257812 18.617188 C 18.484375 18.484375 18.980469 18.078125 19.160156 17.808594 Z M 6.175781 28.039062 C 5.949219 27.679688 5.542969 27.273438 4.914062 26.777344 C 4.011719 26.054688 4.328125 24.792969 4.867188 24.027344 C 5.542969 22.71875 9.105469 21.007812 8.925781 18.890625 C 8.835938 18.121094 8.746094 17.128906 8.023438 16.410156 C 8 16.589844 8 16.769531 8.023438 16.949219 C 8.050781 17.128906 7.707031 16.589844 7.574219 16.046875 C 7.4375 15.867188 7.304688 15.777344 7.167969 15.507812 C 7.078125 15.824219 7.078125 16.140625 7.078125 16.140625 C 7.078125 16.140625 6.851562 15.550781 6.808594 15.101562 C 6.671875 15.328125 6.625 15.734375 6.625 15.734375 C 6.625 15.734375 6.3125 14.832031 6.402344 14.335938 C 6.265625 13.929688 5.816406 13.074219 5.949219 11.179688 C 6.71875 11.722656 8.429688 11.585938 9.105469 10.59375 C 9.332031 10.277344 9.46875 9.375 9.015625 7.617188 C 8.699219 6.492188 7.933594 4.824219 7.617188 4.191406 L 7.574219 4.238281 C 7.753906 4.734375 8.070312 5.816406 8.207031 6.355469 C 8.566406 7.933594 8.699219 8.476562 8.519531 9.195312 C 8.386719 9.828125 8.023438 10.234375 7.078125 10.683594 C 6.175781 11.136719 4.914062 10.007812 4.867188 9.960938 C 3.96875 9.242188 3.289062 8.070312 3.199219 7.527344 C 3.109375 6.898438 3.5625 6.535156 3.785156 6.039062 C 3.472656 6.132812 3.109375 6.3125 3.109375 6.3125 C 3.109375 6.3125 3.515625 5.859375 4.058594 5.5 C 4.265625 5.378906 4.460938 5.242188 4.644531 5.09375 L 4.058594 5.09375 C 4.058594 5.09375 4.597656 4.777344 5.183594 4.597656 L 4.371094 4.597656 L 6.535156 3.652344 C 7.214844 3.382812 7.84375 3.472656 8.203125 3.96875 C 8.699219 4.644531 9.195312 5.003906 10.234375 5.273438 C 10.863281 5.003906 11.089844 4.824219 11.902344 4.597656 C 12.621094 3.785156 13.207031 3.695312 13.207031 3.695312 C 13.207031 3.695312 12.804688 4.058594 12.757812 4.464844 C 13.164062 4.148438 13.613281 3.875 13.613281 3.875 C 13.613281 3.875 13.433594 4.101562 13.296875 4.417969 L 13.34375 4.464844 C 13.679688 4.28125 14.023438 4.117188 14.378906 3.96875 C 14.378906 3.96875 14.199219 4.148438 14.019531 4.417969 L 15.371094 4.464844 C 17.039062 4.507812 17.402344 2.703125 18.03125 2.433594 C 18.84375 2.164062 19.203125 1.984375 20.554688 3.335938 C 21.730469 4.507812 22.628906 6.535156 22.179688 6.988281 C 21.820312 7.347656 21.050781 6.851562 20.195312 5.816406 C 19.746094 5.273438 19.429688 4.597656 19.25 3.785156 C 19.160156 3.109375 18.664062 2.703125 18.664062 2.703125 C 18.664062 2.703125 18.980469 3.382812 18.980469 3.96875 C 18.980469 4.28125 19.023438 5.453125 19.519531 6.132812 C 19.476562 6.222656 19.429688 6.625 19.382812 6.671875 C 18.796875 5.949219 17.492188 5.453125 17.3125 5.273438 C 18.03125 5.859375 19.65625 7.167969 20.285156 8.429688 C 20.871094 9.648438 20.511719 10.730469 20.828125 11 C 20.917969 11.089844 22.089844 12.53125 22.316406 13.296875 C 22.71875 14.605469 22.359375 15.957031 21.820312 16.769531 L 20.375 16.996094 C 20.1875 16.960938 20.003906 16.902344 19.835938 16.816406 C 19.925781 16.632812 20.152344 16.183594 20.152344 16.09375 L 20.0625 15.957031 C 19.609375 16.589844 18.84375 17.21875 18.210938 17.582031 C 17.402344 18.03125 16.453125 17.988281 15.824219 17.761719 C 14.066406 17.21875 12.398438 16.046875 12.035156 15.734375 C 12.035156 15.734375 12.035156 15.957031 12.082031 16.046875 C 12.53125 16.542969 13.523438 17.445312 14.515625 18.078125 L 12.441406 18.300781 L 13.433594 25.964844 C 12.984375 26.011719 12.9375 26.054688 12.441406 26.148438 C 12.035156 24.660156 11.226562 23.710938 10.324219 23.125 C 9.558594 22.628906 8.476562 22.496094 7.4375 22.71875 L 7.394531 22.8125 C 8.113281 22.71875 8.972656 22.855469 9.828125 23.398438 C 10.683594 23.9375 11.359375 25.335938 11.628906 26.148438 C 11.945312 27.230469 12.171875 28.355469 11.316406 29.574219 C 10.683594 30.429688 8.878906 30.925781 7.4375 29.886719 C 7.84375 30.519531 8.339844 31.015625 9.0625 31.105469 C 10.097656 31.242188 11.089844 31.058594 11.8125 30.382812 C 12.398438 29.796875 12.710938 28.535156 12.621094 27.183594 L 13.570312 27.046875 L 13.882812 29.4375 L 29.257812 27.589844 L 27.90625 15.328125 L 27.132812 15.460938 L 25.605469 0 L 0 2.976562 L 3.15625 28.492188 Z M 18.351562 14.628906 C 19.027344 15.125 19.613281 15.433594 20.199219 15.394531 C 20.558594 15.351562 20.921875 14.761719 21.144531 14.222656 C 21.324219 13.863281 21.324219 13.457031 21.054688 13.332031 C 20.921875 13.285156 20.378906 13.285156 19.984375 13.332031 C 19.21875 13.417969 18.453125 13.691406 18.269531 13.824219 C 18 14.007812 18.136719 14.457031 18.359375 14.628906 M 18.539062 9.347656 L 18.539062 9.390625 L 18.582031 9.480469 C 18.765625 9.839844 18.945312 10.203125 19.304688 10.375 C 19.394531 10.375 19.484375 10.328125 19.574219 10.328125 C 19.789062 10.320312 20.003906 10.351562 20.207031 10.417969 L 20.207031 10.148438 C 20.164062 9.695312 20.296875 8.886719 19.402344 8.433594 C 19.042969 8.253906 18.601562 8.347656 18.421875 8.523438 L 18.511719 8.523438 C 18.734375 8.613281 18.601562 8.703125 18.554688 8.796875 C 18.511719 8.976562 18.464844 9.019531 18.554688 9.335938 M 14.480469 9.445312 C 14.707031 9.265625 13.445312 8.992188 12.453125 9.625 C 11.730469 10.121094 11.730469 11.15625 12.40625 11.742188 C 12.496094 11.789062 12.542969 11.832031 12.585938 11.878906 C 12.769531 11.789062 13.039062 11.695312 13.265625 11.605469 C 13.632812 11.488281 14.011719 11.398438 14.390625 11.335938 C 14.523438 11.15625 14.707031 10.886719 14.660156 10.390625 C 14.617188 9.714844 14.074219 9.847656 14.480469 9.441406 M 24.398438 22.113281 L 21.832031 20.398438 L 19.667969 24.003906 L 17.140625 23.238281 L 14.933594 26.621094 L 15.023438 27.691406 L 27.105469 25.484375 L 26.382812 17.957031 Z M 24.398438 22.113281 "/>
</svg>

<svg role="img" viewBox="0 0 29.257 32" xmlns="http://www.w3.org/2000/svg"><path d="m27.137 16.41.77 9.781-13.571 2.434-1.172-9.781 1.938-.27c.316.133.543.18.902.27.586.136 1.262.316 2.254-.227.226-.133.722-.539.902-.808ZM6.176 28.04c-.227-.36-.633-.767-1.262-1.263-.902-.722-.586-1.984-.047-2.75.676-1.308 4.238-3.02 4.059-5.136-.09-.77-.18-1.762-.903-2.48q-.035.269 0 .538c.028.18-.316-.36-.449-.902-.136-.18-.27-.27-.406-.54-.09.317-.09.634-.09.634s-.226-.59-.27-1.04c-.136.227-.183.633-.183.633s-.312-.902-.223-1.398c-.136-.406-.586-1.262-.453-3.156.77.543 2.48.406 3.156-.586.227-.317.364-1.219-.09-2.977-.315-1.125-1.08-2.793-1.397-3.426l-.043.047c.18.496.496 1.578.633 2.117.36 1.579.492 2.122.313 2.84-.133.633-.497 1.04-1.442 1.489-.902.453-2.164-.676-2.21-.723-.9-.719-1.579-1.89-1.669-2.434-.09-.629.364-.992.586-1.488-.312.094-.676.274-.676.274s.407-.454.95-.813q.31-.183.586-.406H4.06s.539-.317 1.125-.496H4.37l2.164-.946c.68-.27 1.309-.18 1.668.317.496.676.992 1.035 2.031 1.304.63-.27.856-.449 1.668-.675.72-.813 1.305-.903 1.305-.903s-.402.364-.45.77c.407-.317.856-.59.856-.59s-.18.227-.316.543l.047.047q.503-.275 1.035-.496s-.18.18-.36.449l1.352.047c1.668.043 2.031-1.762 2.66-2.031.813-.27 1.172-.45 2.524.902 1.175 1.172 2.074 3.2 1.625 3.652-.36.36-1.13-.136-1.985-1.172q-.674-.813-.945-2.03c-.09-.677-.586-1.083-.586-1.083s.316.68.316 1.266c0 .312.043 1.484.54 2.164-.043.09-.09.492-.137.539-.586-.723-1.89-1.219-2.07-1.399.718.586 2.343 1.895 2.972 3.157.586 1.218.227 2.3.543 2.57.09.09 1.262 1.531 1.488 2.297.403 1.308.043 2.66-.496 3.473l-1.445.226a2 2 0 0 1-.54-.18c.09-.183.317-.632.317-.722l-.09-.137c-.453.633-1.218 1.262-1.851 1.625-.809.45-1.758.406-2.387.18-1.758-.543-3.426-1.715-3.789-2.028 0 0 0 .223.047.313.45.496 1.441 1.398 2.434 2.031l-2.075.223.993 7.664c-.45.047-.496.09-.993.183-.406-1.488-1.214-2.437-2.117-3.023-.765-.496-1.847-.629-2.886-.406l-.043.093c.718-.093 1.578.043 2.433.586.856.54 1.531 1.938 1.8 2.75.317 1.082.544 2.207-.312 3.426-.632.856-2.437 1.352-3.879.313.407.633.903 1.129 1.625 1.218 1.036.137 2.028-.046 2.75-.722.586-.586.899-1.848.81-3.2l.948-.136.313 2.39 15.375-1.847-1.352-12.262-.773.133L25.605 0 0 2.977l3.156 25.515Zm12.176-13.411c.675.496 1.261.805 1.847.766.36-.043.723-.633.946-1.172.18-.36.18-.766-.09-.891-.133-.047-.676-.047-1.07 0-.766.086-1.532.36-1.715.492-.27.184-.133.633.09.805m.18-5.281v.043l.042.09c.184.359.363.722.723.894.09 0 .18-.047.27-.047a1.8 1.8 0 0 1 .632.09v-.27c-.043-.453.09-1.261-.805-1.714-.359-.18-.8-.086-.98.09h.09c.222.09.09.18.043.273-.043.18-.09.223 0 .539m-4.075.11c.227-.18-1.035-.454-2.027.179-.723.496-.723 1.531-.047 2.117.09.047.137.09.18.137.184-.09.453-.184.68-.274a8 8 0 0 1 1.125-.27c.132-.179.316-.448.27-.944-.044-.676-.587-.543-.18-.95m9.917 12.672-2.566-1.715-2.164 3.606-2.527-.766-2.207 3.383.09 1.07 12.081-2.207-.722-7.527Zm0 0" fill="rgb(36.078432%, 17.647059%, 56.470591%)"/></svg>
